X:29
T:Simon Brodie
S: Jack Campin <jc@purr.demon.co.uk> abcusers 2002-6-28
M:C|
L:1/8
K:E Dorian
EEGE  ADTFA|EEGE BEGA|BEGB ADTFA|BEGE BEGB|dd e/d/c/B/ ADTFA|[1 EEGE BEGB:|\
                                                             [2 EEGE BEef||
g>age fdfa |gebe gebe|gebe fdfa |gebe gefd|ecdB        ADTFA|[1 EEGE BEef:|\
                                                             [2 EEGE BEGB|]
